src/assets/icon/Linkedin.svg

<svg width="24" height="25" viewBox="0 0 24 25" fill="none" xmlns="http://www.w3.org/2000/svg">
<circle cx="12" cy="12.9258" r="11.5" stroke="#939290"/>
<path d="M8.7981 18.728H6.16339V10.2159H8.7981V18.728ZM7.46819 9.10123C6.60772 9.10123 5.91016 8.39798 5.91016 7.53062C5.91016 6.66316 6.60781 5.95996 7.46819 5.95996C8.32856 5.95996 9.02613 6.66316 9.02613 7.53062C9.02617 8.39803 8.32861 9.10123 7.46819 9.10123ZM18.6717 18.728H16.0498V14.2599C16.0498 13.0344 15.5843 12.3503 14.6153 12.3503C13.5606 12.3503 13.0097 13.0628 13.0097 14.2599V18.728H10.4827V10.2159H13.0097V11.3624C13.0097 11.3624 13.7698 9.95631 15.5747 9.95631C17.3797 9.95631 18.6717 11.0584 18.6717 13.3383L18.6717 18.728Z" fill="#939290"/>
</svg>

<svg width="24" height="25" fill="none" xmlns="http://www.w3.org/2000/svg"><circle cx="12" cy="12.926" r="11.5" stroke="#939290"/><path d="M8.798 18.728H6.163v-8.512h2.635v8.512Zm-1.33-9.627c-.86 0-1.558-.703-1.558-1.57 0-.868.698-1.571 1.558-1.571.86 0 1.558.703 1.558 1.57 0 .868-.697 1.571-1.558 1.571Zm11.204 9.627H16.05V14.26c0-1.226-.466-1.91-1.435-1.91-1.054 0-1.605.713-1.605 1.91v4.468h-2.527v-8.512h2.527v1.146s.76-1.406 2.565-1.406 3.097 1.102 3.097 3.382v5.39Z" fill="#939290"/></svg>
